X:422
T:Log Cabin
C:Traditional
S:Colin Hume's website,  colinhume.com  - chords can also be printed below the stave.
Q:1/2=120
M:2/2
L:1/4
K:G
GB | "G"d2 e2 | "G7"dB2G | "C"AG GE | "D7"D2 -DD | "G"GG GG | "Em"dd dB | "Am"A2- A2- | "D7"A2 Bc |
"G"d2 e2 | "G7"dB2G | "C"AG GE | "D7"D2 GA | "G"Bd "Em"dB | "Am"Ac "D7"BA | "G"G2- "C"G2- | "G7"G2 AB |
"C"c2 c2 | "/"ee2e | "G"dd dB | "/"d2 BA | "Em"GG GG | "G"dd dB | "Am"A2- A2- | "D7"A2 Bc |
"G"d2 e2 | "G7"dB2G | "C"AG GE | "D7"D2 GA | "G"Bd "Em"dB | "Am"Ac "D7"BA | "G"G2- "C"G2- | "G"G2 |]

